X: 40978
T: Trip To Dingle, The
R: polka
M: 2/4
K: Dmajor
|:DF/G/ AA|AB F2-|Fd BA|B/d/B/A/ FD|
B,c,/B,/ A,B,|DE FA-|AB FE|1 D2- DB,:|2 D2- Dd||
|:B=c/B/ AB|de f2|ED/E/ FE|E/F/E/D/ B,A,|
[1 B=c/B/ AB|de fa-|ab fd|e2 ed:|
[2 B,C/B,/ A,B,|DE FA-|AB FE|D2 D2||

